icons/1_Primary/Thunderpick.svg

<svg xmlns="http://www.w3.org/2000/svg" width="1024" height="1024" fill="none">
   <g clip-path="url(#a)">
      <path fill="#9ABEFF" d="M512 1024c282.77 0 512-229.23 512-512S794.77 0 512 0 0 229.23 0 512s229.23 512 512 512Z"/>
      <path fill="#fff" d="M609.66 246 351.22 465.43l4.88 9.75h165.79l-195.05 97.53 4.87 9.75h160.92L214.69 748.25l4.87 9.75 438.86-185.29 14.63-53.64-123.86.6 143.36-78.62 9.75-29.26H521.89L741.31 246H609.66Z"/>
   </g>
   <defs>
      <clipPath id="a">
         <path fill="#fff" d="M0 0h1024v1024H0z"/>
      </clipPath>
   </defs>
</svg>

<svg width="1024" height="1024" viewBox="0 0 1024 1024" fill="none" xmlns="http://www.w3.org/2000/svg">
<g clip-path="url(#clip0_2_3645)">
<path d="M512 1024C794.77 1024 1024 794.77 1024 512C1024 229.23 794.77 0 512 0C229.23 0 0 229.23 0 512C0 794.77 229.23 1024 512 1024Z" fill="#9ABEFF"/>
<path d="M609.66 246L351.22 465.43L356.1 475.18H521.89L326.84 572.71L331.71 582.46H492.63L214.69 748.25L219.56 758L658.42 572.71L673.05 519.07L549.19 519.67L692.55 441.05L702.3 411.79H521.89L741.31 246H609.66Z" fill="white"/>
</g>
<defs>
<clipPath id="clip0_2_3645">
<rect width="1024" height="1024" fill="white"/>
</clipPath>
</defs>
</svg>
